!!!OTL: Waechterlied
!!!ARE: Europa, Mitteleuropa, Deutschland
!!!SCT: A0111
!!!YEM: Copyright 1995, estate of Helmut Schaffrath.
**kern
*ICvox
*Ivox
!! Mixed meters:  4/2; 6/2
*M4/2
*k[]
*C:
{1c
2A
2B
=1
1c
2r
2c
=2
2d
2d
1c
=3
2r}
{2c
2e
2f
=4
1.g
2f
=5
2e
1g
4f
4e
=6
2f
2e
1d
=7
0c}
=8
{1c
2A
2B
=9
1c
2r
2c
=10
2d
2d
1c
=11
2r}
{2c
2e
2f
=12
1.g
2f
=13
2e
1g
4f
4e
=14
2f
2e
1d
=15
1.c}
{2g
=16
2e
2d
1c
=17
2r
2c
2d
2d
=18
1A
2r}
{2A
=19
2G
2G
1d
=20
2c
1c
4B
4A
=21
4B-
4A
4G
4F
1G
=22
1F
2r}
{2c
=23
2A
2A
1d
=24
2c
1c
4B
4A
=25
2B
2B
1A
=26
2r}
{2G
2A
2B
=27
1c
2B
[2A
=28
2A]
4G
4F
2G
2G
=29
*M6/2
1F
2r}
{2f
2d
2d
=30
*M4/2
1g
2f
2e
=31
4f
4f
2.g
4f
[2e
=32
2e]
4e
4d
4c
4d
1.c}
==
!!!AGN: Romanze, Ballade, Lied
!! Forster III. 1549 No. 13.
!!!ONB: ESAC (Essen Associative Code) Database: ALTDEU
!!!AMT: irregular
!!!AIN: vox
!!!EED: Helmut Schaffrath
!!!EEV: 1.0
*-
